X:1
T:Title
%%score { ( 1 2 3 ) | ( 4 5 6 ) }
L:1/8
Q:1/4=100
M:4/4
K:G
V:1 bass nm="Grand Piano"
V:2 bass 
V:3 bass 
V:4 bass 
V:5 bass 
V:6 bass 
V:1
 [B,D]4 z4 | [B,D]4[K:treble] B4 | z2 z B A2 G2 | [^CE]6 z2 | [CF]4 z4 | %5
w: H.~W.~Petrie|||||
 [CA]2 [A,CF]2[K:bass] [G,CE]2 [F,CD]2 | z2 z G F2 E2 | [B,D]6 z2 | [B,D]4 z4 | %9
w: ||||
 [B,D]4[K:treble] B4 | z2 z B A2 G2 | [^CE]6 z2 | z2 z ^G A2 B2 | [Fd]2 [Ec]2 [DB]2 [CA]2 | %14
w: |||||
 [Ec]4 B4 | [B,G]6 z2 | [DB]4 [DB]3 _B | [DB]2 [B,G]2 [CE]2 [B,D]2 | [DB]3 B [EB]2 [GB]2 | %19
w: |||||
 [Fc]6 z2 | [Fc]4 [FB]4 | [DGd]2 [DB]2 [DA]2 [DG]2 | z2 z B A2 E2 | [CA]6[K:bass] z2 | %24
w: |||||
 [DB]4 [DB]3 _B | [DB]2 [B,G]2 [CE]2 [B,D]2 | [DB]3 B [EB]2 [GB]2 | [Fc]6 z2 | [Fce]4 F4 | %29
w: |||||
 [GBe]2 [GBd]2 [Ec]2 [DB]2 | [^CB]4 [DB]4 | [B,G]6 z2 |] %32
w: |||
V:2
 z2 z E [G,B,D]2 [G,B,E]2 | z2 ^G,2[K:treble] z2 G,2 | [^CA]4 z4 | %3
 z2 [G,A,][G,A,] .[G,A,]2 .[G,A,]2 | z2 z =F [A,C^F]2 [A,CG]2 | x4[K:bass] x4 | [B,G]4 z4 | x8 | %8
 z2 z E [G,B,D]2 [G,B,E]2 | z2 ^G,2[K:treble] z2 G,2 | [^CA]4 z4 | %11
 z2 [G,A,][G,A,] .[G,A,]2 .[G,A,]2 | [CA]4 z4 | x8 | z2 F,2 z2 F,2 | x8 | x8 | x8 | x8 | %19
 z2 [A,C][A,C] .[A,C]2 .[A,C]2 | z2 [F,C]2 z2 z A | x8 | [^CA]4 z4 | z2[K:bass] F,F, .F,2 .F,2 | %24
 x8 | x8 | x8 | z2 [A,C][A,C] .[A,C]2 .[A,C]2 | z2 [A,C]2 z2 z [ce] | x8 | z2 G,2 z2 z A | x8 |] %32
V:3
 z2 G,2 z4 | x4[K:treble] x4 | z2 G,2 z4 | x8 | z2 A,2 z4 | x4[K:bass] x4 | z2 G,2 z4 | x8 | %8
 z2 G,2 z4 | x4[K:treble] x4 | z2 G,2 z4 | x8 | z2 F,2 z4 | x8 | x8 | x8 | x8 | x8 | x8 | x8 | %20
 z4 z2 [F,C]2 | x8 | z2 G,2 z4 | x2[K:bass] x6 | x8 | x8 | x8 | x8 | z4 z2 [A,C]2 | x8 | %30
 z4 z2 F,2 | x8 |] %32
V:4
 G,,2 z B, D,2 D,2 | z4 [E,^G,]2 z2 | A,,2 z ^C [E,G,C]2 [E,G,C]2 | A,,2 E,E, .E,2 .E,2 | %4
 D,,2 z C D,2 D,2 | D,,2 D,2 D,2 D,2 | G,,2 z B, [^C,G,_B,]2 [C,G,B,]2 | [G,,D,]2 E,F, E,2 D,2 | %8
 G,,2 z B, D,2 D,2 | z4 [E,^G,]2 z2 | A,,2 z ^C [E,G,C]2 [E,G,C]2 | A,,2 E,E, .E,2 .E,2 | %12
 D,,2 z B, [D,F,C]2 [D,F,D]2 | D,,2 [D,F,]2 [D,F,]2 [D,F,]2 | z4 [D,F,]2 z2 | %15
 [G,,D,]2 D,D, .D,2 .D,2 | z2 G,2 G,2 z ^C | z2 G,2 G,2 G,2 | z2 z ^D G,2 G,2 | %19
 A,,2 D,D, .D,2 .D,2 | A,,2 D,2 D,,2 z F | B,,2 [D,G,B,]2 C2 B,2 | z2 z ^C [E,G,C]2 [E,G,C]2 | %23
 D,,2 D,D, .D,2 .D,2 | z2 G,2 G,2 z ^C | z2 G,2 G,2 G,2 | z2 z ^D G,2 G,2 | A,,2 D,D, .D,2 .D,2 | %28
 A,,2 D,2 D,,2 z F | G,,2 [D,G,B,]2 E,,2 [E,^G,]2 | z4 z2 D,2 | G,2 D,2 G,,2 z2 |] %32
V:5
 z2 D,2 z4 | E,,2 E,2 D2- [E,D]2 | z2 E,2 z4 | x8 | z2 D,2 z4 | x8 | z2 D,2 z4 | x8 | z2 D,2 z4 | %9
 E,,2 E,2 D2- [E,D]2 | z2 E,2 z4 | x8 | z2 D,2 z4 | x8 | D,,2 D,2 D2- [D,D]2 | x8 | z4 z2 G,2 | %17
 G,,8 | z2 G,2 z4 | x8 | z4 z2 D,2 | x8 | z2 E,2 z4 | x8 | z4 z2 G,2 | G,,8 | z2 G,2 z4 | x8 | %28
 z4 z2 D,2 | x8 | A,,2 E,2 D,,2 z C | x8 |] %32
V:6
 x8 | x8 | x8 | x8 | x8 | x8 | x8 | x8 | x8 | x8 | x8 | x8 | x8 | x8 | x8 | x8 | G,,8 | x8 | G,,8 | %19
 x8 | x8 | x8 | A,,8 | x8 | G,,8 | x8 | G,,8 | x8 | x8 | x8 | x8 | x8 |] %32

